svgs/screen_dimmer.svg

<svg width="192" height="192" viewBox="0 0 192 192" fill="none" xmlns="http://www.w3.org/2000/svg">
<path d="M81 129.833C93.9608 124.078 103 111.095 103 96C103 80.9052 93.9608 67.9215 81 62.1668C85.5848 60.1311 90.6603 59 96 59C116.435 59 133 75.5655 133 96C133 116.435 116.435 133 96 133C90.6603 133 85.5848 131.869 81 129.833Z" stroke="black" stroke-width="10" stroke-linejoin="round"/>
<path d="M21 96L42.967 74.033V48.967C42.967 45.6533 45.6533 42.967 48.967 42.967H74.033L96 21L117.967 42.967H143.033C146.347 42.967 149.033 45.6533 149.033 48.967V74.033L171 96L149.033 117.967V143.033C149.033 146.347 146.347 149.033 143.033 149.033H117.967L96 171L74.033 149.033H48.967C45.6533 149.033 42.967 146.347 42.967 143.033V117.967L21 96Z" stroke="black" stroke-width="10" stroke-linejoin="round"/>
</svg>

<svg xmlns="http://www.w3.org/2000/svg" width="192" height="192" fill="none" viewBox="0 0 192 192"><path stroke="#000" stroke-linejoin="round" stroke-width="10" d="M81 129.833c12.96-5.755 22-18.738 22-33.833s-9.04-28.079-22-33.833A36.9 36.9 0 0 1 96 59c20.435 0 37 16.566 37 37s-16.565 37-37 37a36.9 36.9 0 0 1-15-3.167Z"/><path stroke="#000" stroke-linejoin="round" stroke-width="10" d="m21 96 21.967-21.967V48.967a6 6 0 0 1 6-6h25.066L96 21l21.967 21.967h25.066a6 6 0 0 1 6 6v25.066L171 96l-21.967 21.967v25.066a6 6 0 0 1-6 6h-25.066L96 171l-21.967-21.967H48.967a6 6 0 0 1-6-6v-25.066z"/></svg>
